src/svg/uf0e1-linkedin.svg

<!-- Generated by IcoMoon.io -->
<svg version="1.1" xmlns="http://www.w3.org/2000/svg" width="27" height="32" viewBox="0 0 27 32">
<path d="M6.232 11.161v17.696h-5.893v-17.696h5.893zM6.607 5.696c0.018 1.696-1.268 3.054-3.321 3.054v0h-0.036c-1.982 0-3.25-1.357-3.25-3.054 0-1.732 1.321-3.054 3.321-3.054 2.018 0 3.268 1.321 3.286 3.054zM27.429 18.714v10.143h-5.875v-9.464c0-2.375-0.857-4-2.982-4-1.625 0-2.589 1.089-3.018 2.143-0.143 0.393-0.196 0.911-0.196 1.446v9.875h-5.875c0.071-16.036 0-17.696 0-17.696h5.875v2.571h-0.036c0.768-1.214 2.161-2.982 5.339-2.982 3.875 0 6.768 2.536 6.768 7.964z"></path>
</svg>

<svg xmlns="http://www.w3.org/2000/svg" width="27" height="32"><path d="M6.232 11.161v17.696H.339V11.161h5.893zm.375-5.465C6.625 7.392 5.339 8.75 3.286 8.75H3.25C1.268 8.75 0 7.393 0 5.696c0-1.732 1.321-3.054 3.321-3.054 2.018 0 3.268 1.321 3.286 3.054zm20.822 13.018v10.143h-5.875v-9.464c0-2.375-.857-4-2.982-4-1.625 0-2.589 1.089-3.018 2.143-.143.393-.196.911-.196 1.446v9.875H9.483c.071-16.036 0-17.696 0-17.696h5.875v2.571h-.036c.768-1.214 2.161-2.982 5.339-2.982 3.875 0 6.768 2.536 6.768 7.964z"/></svg>
